X:268
T:Denty Davy. JaW.268
T:Dainty Davie,aka. JaW.268
M:C|
L:1/8
Q:1/2=90
S:James Winder Ms, Lancashire, 1835-41
R:.Country Dance
O:England
A:Wyresdale,Lancashire
Z:vmp.Chris Partington, Aug 2004
K:F
f2|cAGF GAD2|FAAc DAAc|"sic"f2 cAGF GAD2|fdec d2f2:|!
|:fafa faaf|egeg egge|fafa faaf|fdec d2f2:|

